packages/nodes-base/nodes/NocoDB/nocodb.svg

<svg width="200" height="200" viewBox="0 0 200 200" fill="none" xmlns="http://www.w3.org/2000/svg">
<rect width="200" height="200" rx="25" fill="#3D43D5"/>
<path d="M38 93.9073L67.7602 122.913V168.833H38V93.9073ZM163 32.2418V157.659C163 165.737 158.502 169 151.258 169C149.925 169 147.533 168.499 145.465 166.498L38 65.3278V42.8413C38 34.7625 41.3629 31.5 49.7232 31.5C51.056 31.5 53.7333 32.0193 55.7823 34.0023L133.221 105.925V32.2418H163Z" fill="white"/>
</svg>

<svg xmlns="http://www.w3.org/2000/svg" width="200" height="200" fill="none"><rect width="200" height="200" fill="#3D43D5" rx="25"/><path fill="#fff" d="m38 93.907 29.76 29.006v45.92H38zm125-61.665v125.417c0 8.078-4.498 11.341-11.742 11.341-1.333 0-3.725-.501-5.793-2.502L38 65.328V42.84C38 34.763 41.363 31.5 49.723 31.5c1.333 0 4.01.52 6.06 2.502l77.438 71.923V32.242z"/></svg>
